X: 3
T: Wuppertal Waltz
C: Gillian Tolfrey (arr. Maurice Condie)
R: waltz
Z: 2020 John Chambers <jc:trillian.mit.edu>
S: https://www.facebook.com/groups/Fiddletuneoftheday/
S: https://www.facebook.com/groups/Fiddletuneoftheday/photos/
M: 3/4
L: 1/8
K: D
FE |\
"D"DC DE FA | "G"dc BA Bd | "Bm"FE DE "A"Fd | "G"B4 AB |\
"D"DC DE FA | "G"dc BA Bd | "Em"FE DE "A"DC | "D"D4 :|
|: (3ABc |\
"D"d2 dc de | "G"fe dA de | "Bm"fg af "A"dc | "G"B4 (3ABc |\
"D"d2 dc BA | "G"Bd FE D2 | "Em"F2 FE "A"DC | "D"D4 :|

